theme/essential/pix_core/t/backup.svg

<!DOCTYPE svg PUBLIC "-//W3C//DTD SVG 1.1//EN" "http://www.w3.org/Graphics/SVG/1.1/DTD/svg11.dtd" [
	<!ENTITY ns_flows "http://ns.adobe.com/Flows/1.0/">
]><svg xmlns="http://www.w3.org/2000/svg" width="12" height="12" viewBox="0 0 12 12" preserveAspectRatio="xMinYMid meet" overflow="visible"><path d="M12 7v4c0 .5-.5 1-1 1h-10c-.5 0-1-.5-1-1v-4c0-.5.5-1 1-1h.5c.5 0 1 .5 1 1v2.5h7v-2.5c0-.5.5-1 1-1h.5c.5 0 1 .5 1 1zm-2.1-3.4l-3.3-3.3c-.2-.2-.4-.3-.7-.3-.2 0-.5.1-.7.3l-3.3 3.3c-.4.4-.4 1 0 1.4l.3.3c.4.4 1 .4 1.4 0l1-1.1v2.7c0 .5.5 1 1 1h.5c.5 0 1-.5 1-1v-2.7l1 1c.4.4 1 .4 1.4 0l.5-.2c.3-.4.3-1-.1-1.4z" fill="#999"/></svg>

<!DOCTYPE svg PUBLIC "-//W3C//DTD SVG 1.1//EN" "http://www.w3.org/Graphics/SVG/1.1/DTD/svg11.dtd" [
	<!ENTITY ns_flows "http://ns.adobe.com/Flows/1.0/">
]><svg xmlns="http://www.w3.org/2000/svg" width="12" height="12" viewBox="0 0 12 12" preserveAspectRatio="xMinYMid meet" overflow="visible"><path d="M12 7v4c0 .5-.5 1-1 1H1c-.5 0-1-.5-1-1V7c0-.5.5-1 1-1h.5c.5 0 1 .5 1 1v2.5h7V7c0-.5.5-1 1-1h.5c.5 0 1 .5 1 1zM9.9 3.6L6.6.3C6.4.1 6.2 0 5.9 0c-.2 0-.5.1-.7.3L1.9 3.6c-.4.4-.4 1 0 1.4l.3.3c.4.4 1 .4 1.4 0l1-1.1v2.7c0 .5.5 1 1 1h.5c.5 0 1-.5 1-1V4.2l1 1c.4.4 1 .4 1.4 0L10 5c.3-.4.3-1-.1-1.4z" fill="#999"/></svg>
